X:1
T: Colonel H.F. Campbell's Strathspey
C:
R:Strathspey
Q: 128
K:G
M:4/4
L:1/16
|:B3A|G4 d4 d3B dg3|e3g d3g A3F D3F|G4 d4 d3B dg3|e3g f3a g4 B3A|
G4 d4 d3B dg3|e3g d3g A3F D3F|G4 d4 d3B dg3|e3g f3a g4 d4|
g3a b3a g3d dg3|e3g dg3 A3F D3F|g3a b3a gd3 d3g|e3g f3a g4 g3d|
g3a b3a g3d dg3|e3g d3g A3F D3F|G4 d4 d3B dg3|e3g f3a g4:|
